icons/user-shared-2-fill.svg

<svg xmlns="http://www.w3.org/2000/svg" width="24" height="24" fill="none"><g clip-path="url(#a)"><g><path fill="#121212" d="M14 14.252V22H4C3.99969 20.7789 4.27892 19.5739 4.8163 18.4774C5.35368 17.3809 6.13494 16.4219 7.10022 15.674C8.0655 14.9261 9.18918 14.4091 10.3852 14.1626C11.5811 13.9162 12.8177 13.9467 14 14.252ZM12 13C8.685 13 6 10.315 6 7C6 3.685 8.685 1 12 1C15.315 1 18 3.685 18 7C18 10.315 15.315 13 12 13ZM18 17V13.5L23 18L18 22.5V19H15V17H18Z"/></g></g><defs><clipPath id="a"><rect width="24" height="24" fill="white"/></clipPath></defs></svg>

<svg width="24" height="24" fill="none" xmlns="http://www.w3.org/2000/svg"><g clip-path="url(#a)"><path d="M14 14.252V22H4a8 8 0 0 1 10-7.748ZM12 13c-3.315 0-6-2.685-6-6s2.685-6 6-6 6 2.685 6 6-2.685 6-6 6Zm6 4v-3.5l5 4.5-5 4.5V19h-3v-2h3Z" /></g><defs><clipPath id="a"><path fill="#fff" d="M0 0h24v24H0z"/></clipPath></defs></svg>
